icons/svg/pin.svg

<svg width="24" height="24" viewBox="0 0 24 24" fill="none" xmlns="http://www.w3.org/2000/svg">
<path d="M7.77041 16.2329L3.75 20.2533M14.9761 3.33645L20.6669 9.0273C21.6913 10.0517 21.3206 11.7916 19.9676 12.3094L16.5953 13.6C15.4072 14.0547 14.5062 15.0474 14.1685 16.2739L13.4802 18.7734C13.1749 19.8822 11.7867 20.2491 10.9734 19.4358L4.56751 13.0299C3.75426 12.2167 4.12112 10.8284 5.22995 10.5231L7.7295 9.83483C8.95595 9.49711 9.94864 8.59616 10.4033 7.4081L11.694 4.0358C12.2118 2.68276 13.9516 2.31204 14.9761 3.33645Z" stroke="currentColor" stroke-width="1.5" stroke-linecap="round" stroke-linejoin="round"/>
</svg>

<svg xmlns="http://www.w3.org/2000/svg" width="24" height="24" fill="none" viewBox="0 0 24 24"><path stroke="currentColor" stroke-linecap="round" stroke-linejoin="round" stroke-width="1.5" d="m7.77 16.233-4.02 4.02M14.976 3.336l5.69 5.691a2 2 0 0 1-.698 3.282L16.595 13.6a4 4 0 0 0-2.426 2.674l-.689 2.5a1.5 1.5 0 0 1-2.507.662L4.568 13.03a1.5 1.5 0 0 1 .662-2.507l2.5-.688a4 4 0 0 0 2.673-2.427l1.291-3.372a2 2 0 0 1 3.282-.7"/></svg>
